Newaita-dark/actions/24/audio-volume-muted-blocking.svg

<svg height="24" viewBox="0 0 24 24" width="24" xmlns="http://www.w3.org/2000/svg"><g fill="#e0e0e0" fill-opacity=".392157"><path d="m10.910156 2.175781c-.007812 0-.015625 0-.023437 0-.285157.011719-.550781.140625-.730469.355469l-4.664062 5.597656h-.035157v7.929688h.035157l4.664062 5.597656c.265625.320312.703125.4375 1.09375.296875s.652344-.511719.652344-.925781v-17.863282c0-.546874-.445313-.988281-.992188-.988281zm-7.933594 5.953125c-.546874 0-.988281.445313-.988281.988282v5.953124c0 .546876.441407.988282.988281.988282h1.488282v-7.929688zm0 0"/><path d="m15.054688 8.296875c-.253907 0-.507813.09375-.703126.289063-.386718.390624-.386718 1.015624 0 1.402343l2.105469 2.105469-2.105469 2.105469c-.386718.390625-.386718 1.015625 0 1.402343.390626.390626 1.015626.390626 1.40625 0l2.101563-2.101562 2.105469 2.101562c.390625.390626 1.015625.390626 1.40625 0 .386718-.386718.386718-1.011718 0-1.402343l-2.105469-2.105469 2.105469-2.105469c.386718-.386719.386718-1.011719 0-1.402343-.390625-.386719-1.015625-.386719-1.40625 0l-2.105469 2.105468-2.101563-2.105468c-.195312-.195313-.449218-.289063-.703124-.289063zm0 0"/></g></svg>

<svg xmlns="http://www.w3.org/2000/svg" xmlns:xlink="http://www.w3.org/1999/xlink" width="24px" height="24px" viewBox="0 0 24 24" version="1.1">
<g id="surface1">
<path style=" stroke:none;fill-rule:nonzero;fill:rgb(87.843138%,87.843138%,87.843138%);fill-opacity:0.392157;" d="M 10.910156 2.175781 C 10.902344 2.175781 10.894531 2.175781 10.886719 2.175781 C 10.601562 2.1875 10.335938 2.316406 10.15625 2.53125 L 5.492188 8.128906 L 5.457031 8.128906 L 5.457031 16.058594 L 5.492188 16.058594 L 10.15625 21.65625 C 10.421875 21.976562 10.859375 22.09375 11.25 21.953125 C 11.640625 21.8125 11.902344 21.441406 11.902344 21.027344 L 11.902344 3.164062 C 11.902344 2.617188 11.457031 2.175781 10.910156 2.175781 Z M 2.976562 8.128906 C 2.429688 8.128906 1.988281 8.574219 1.988281 9.117188 L 1.988281 15.070312 C 1.988281 15.617188 2.429688 16.058594 2.976562 16.058594 L 4.464844 16.058594 L 4.464844 8.128906 Z M 2.976562 8.128906 "/>
<path style=" stroke:none;fill-rule:nonzero;fill:rgb(87.843138%,87.843138%,87.843138%);fill-opacity:0.392157;" d="M 15.054688 8.296875 C 14.800781 8.296875 14.546875 8.390625 14.351562 8.585938 C 13.964844 8.976562 13.964844 9.601562 14.351562 9.988281 L 16.457031 12.09375 L 14.351562 14.199219 C 13.964844 14.589844 13.964844 15.214844 14.351562 15.601562 C 14.742188 15.992188 15.367188 15.992188 15.757812 15.601562 L 17.859375 13.5 L 19.964844 15.601562 C 20.355469 15.992188 20.980469 15.992188 21.371094 15.601562 C 21.757812 15.214844 21.757812 14.589844 21.371094 14.199219 L 19.265625 12.09375 L 21.371094 9.988281 C 21.757812 9.601562 21.757812 8.976562 21.371094 8.585938 C 20.980469 8.199219 20.355469 8.199219 19.964844 8.585938 L 17.859375 10.691406 L 15.757812 8.585938 C 15.5625 8.390625 15.308594 8.296875 15.054688 8.296875 Z M 15.054688 8.296875 "/>
</g>
</svg>
